remix/Document/file-excel-line.svg

<svg viewBox="0 0 24 24" fill="currentColor" xmlns="http://www.w3.org/2000/svg"><path d="M13.2 12L16 16H13.6L12 13.7143L10.4 16H8L10.8 12L8 8H10.4L12 10.2857L13.6 8H15V4H5V20H19V8H16L13.2 12ZM3 2.9918C3 2.44405 3.44749 2 3.9985 2H16L20.9997 7L21 20.9925C21 21.5489 20.5551 22 20.0066 22H3.9934C3.44476 22 3 21.5447 3 21.0082V2.9918Z"/></svg>

<svg viewBox="0 0 24 24" xmlns="http://www.w3.org/2000/svg"><path fill="none" d="M0 0h24v24H0Z"/><path d="M13.2 12l2.8 4h-2.4L12 13.71l-1.6 2.28H8l2.8-4 -2.8-4h2.4l1.6 2.28 1.6-2.29H15v-4H5v16h14v-12h-3l-2.8 4ZM3 2.99c0-.55.44-1 .99-1h12l5 5v13.99h0c0 .55-.45 1-1 1 -.01 0-.01 0-.01 0H3.96v0c-.55-.01-.99-.45-1-1V2.96Z"/></svg>
